X: 15
T: Dunmore Lasses, The
Z: JACKB
S: https://thesession.org/tunes/462#setting52837
R: reel
M: 4/4
L: 1/8
K: Emin
|:E3F G3A|Be e2 Be e2|E3 F G2 BG|A2 BA GEFD|
E3 F G3 A|Beed e3f|(3gfe fd edBG|AcBA GE E2:||
|:g2 eg fedc|Be e2 Be e2|g2 eg fedB|AcBA GE E2|
g2eg fedc|Beed e3 f|(3gfe fd edBG|AcBA GE E2:||

%-------------------- TUNE SEPARATOR --------------------%

